!!!COM: Palestrina, Giovanni Perluigi da
!!!OPR: Missa Nigra sum
!!!OMD: Credo
!!!OTL: Crucifixus
**kern	**kern	**kern	**kern
*Itenor	*Itenor	*Icalto	*Icant
!Tenor 2	!Tenor 1	!Altus	!Cantus
*clefGv2	*clefGv2	*clefG2	*clefG2
*k[b-]	*k[b-]	*k[b-]	*k[b-]
*D:aeo	*D:aeo	*D:aeo	*D:aeo
*M4/2	*M4/2	*M4/2	*M4/2
=92	=92	=92	=92
0r	0d	0r	0r
=93	=93	=93	=93
0r	1d	1r	0r
.	[1c	[1g	.
=94	=94	=94	=94
0r	2c]	1g]	0r
.	2G	.	.
.	2B-	1g	.
.	2c	.	.
=95	=95	=95	=95
0r	1d	1.f	0dd
.	[1B-	.	.
.	.	2d	.
=96	=96	=96	=96
0r	1B-]	2f	1dd
.	.	2g	.
.	2.f	1a	[1cc
.	4c	.	.
=97	=97	=97	=97
0r	0e-	2g	2cc]
.	.	1b-	2g
.	.	.	2b-
.	.	4a	2cc
.	.	4g	.
=98	=98	=98	=98
1r	1d	2b-	2dd
.	.	2.a	2dd
[1d	1G	.	1b-
.	.	4g	.
.	.	[2g	.
=99	=99	=99	=99
1d]	0r	2g]	2a
.	.	4f	4dd
.	.	4e	4cc
1d	.	4f	4dd
.	.	4g	4ee
.	.	4a	[2ff
.	.	4b	.
=100	=100	=100	=100
1.c	0g	2.cc	2ff]
.	.	.	4ee
.	.	4b-	4dd
.	.	4g	2ee
.	.	4a	.
2G	.	[2b-	4dd
.	.	.	4cc
=101	=101	=101	=101
2B-	1g	2b-]	2dd
2c	.	4a	2ee
.	.	4g	.
2d	1f	2b-	2dd
2d	.	[2a	2ff
=102	=102	=102	=102
1B-	1d	2a]	2ff
.	.	2g	4ee
.	.	.	4dd
[1A	1e	1a	1cc#
=103	=103	=103	=103
1A]	2e	2r	1cc#
.	2e	2a	.
1d	2f	2a	1r
.	2d	2f	.
=104	=104	=104	=104
2d	2f	2a	1r
2G	4e	4g	.
.	4d	4f	.
2A	2c#	2e	2r
2a	2c#	2e	2ee
=105	=105	=105	=105
2a	1.d	1d	2ff
2f	.	.	2dd
2a	.	1d	2ff
4g	2G	.	4ee
4f	.	.	4dd
=106	=106	=106	=106
2e	1A	2r	2cc#
2e	.	1a	2cc#
1d	1B-	.	2.dd
.	.	2g	.
.	.	.	4b-
=107	=107	=107	=107
0a	1A	2f	4cc
.	.	.	4b-
.	.	2e	4a
.	.	.	4g
.	2r	2d	2f
.	[2a	2c	2e
=108	=108	=108	=108
2r	2a]	1B-	1d
1d	2g	.	.
.	2f	1A	1r
2c	2e	.	.
=109	=109	=109	=109
2B-	2d	1f	1r
2A	2c	.	.
2G	1d	1g	2r
2B-	.	.	[2dd
=110	=110	=110	=110
1A	2f	1a	2dd]
.	2e	.	2cc
2B-	4d	1f	2b-
.	4e	.	.
2F	4f	.	2a
.	4d	.	.
=111	=111	=111	=111
1G	2e	2b-	2g
.	1d	2b-	2f
1A	.	1a	1e
.	2c#	.	.
=112	=112	=112	=112
1d	1d	2r	2r
.	.	2f	2a
1r	1r	2a	2cc
.	.	2b-	2dd
=113	=113	=113	=113
0r	0r	2g	2ee
.	.	2a	2ff
.	.	2.b-	2.dd
.	.	4b-	4dd
=114	=114	=114	=114
2r	0r	2a	2cc
2B-	.	2.b-	2.dd
2d	.	.	.
.	.	4a	4cc
2e-	.	[2g	2b-
=115	=115	=115	=115
2c	0r	2g]	1a
2d	.	2f#	.
2.e-	.	2g	4g
.	.	.	4a
.	.	2g	4b-
4e-	.	.	4cc
=116	=116	=116	=116
2d	1r	2f	2.dd
4B-	.	4d	.
4c	.	4e	8cc
.	.	.	8b-
4d	2r	4f	1a
4e	.	4g	.
[2f	2F	[2a	.
=117	=117	=117	=117
4f]	2A	4a]	1r
4e	.	4g	.
1d	2B-	2f	.
.	2G	1e	2r
2c	2A	.	[2a
=118	=118	=118	=118
2f	2.B-	2d	2a]
4e	.	1d	2g
4d	4B-	.	.
1e	1A	.	2a
.	.	2c	[2cc
=119	=119	=119	=119
2r	1G	1d	4cc]
.	.	.	4b-
1d	.	.	2b-
.	1A	2f	1a
2c#	.	[2e	.
=120	=120	=120	=120
2d	0r	4e]	[0a
.	.	4d	.
1f	.	1d	.
[2e	.	2c#	.
=121	=121	=121	=121
4e]	1r	2d	0a]
4d	.	.	.
1d	.	2f	.
.	2r	1e	.
2c	[2a	.	.
=122	=122	=122	=122
1B-	2a]	1d	2r
.	2g	.	1dd
1A	2f	1a	.
.	[2e	.	2cc#
=123	=123	=123	=123
2.d	4e]	0a	2dd
.	4d	.	.
.	1d	.	1ff
4e	.	.	.
4f	.	.	.
4g	.	.	.
2a	2c#	.	[2ee
=124	=124	=124	=124
2.f	1d	0a	4ee]
.	.	.	4dd
.	.	.	1dd
8e	.	.	.
8d	.	.	.
1e	1A	.	.
.	.	.	2cc#
=125	=125	=125	=125
1d	2r	2r	1dd
.	1f	1d	.
1r	.	.	[1a
.	2c	2e	.
=126	=126	=126	=126
0r	1d	1f	2a]
.	.	.	2b
.	2c	2g	1cc
.	2A	2a	.
=127	=127	=127	=127
1r	1G	1.b-	2dd
.	.	.	2ee
2r	1d	.	[1ff
[2d	.	4a	.
.	.	4g	.
=128	=128	=128	=128
2d]	2r	1.a	2ff]
2e	1A	.	4ee
.	.	.	4dd
2f	.	.	4cc
.	.	.	4a
[2g	2B-	4g	2dd
.	.	4f	.
=129	=129	=129	=129
2g]	1c	2e	2.cc
1a	.	2A	.
.	.	.	8b-
.	.	.	8a
.	2d	1r	1b-
2g	2e	.	.
=130	=130	=130	=130
0a	2.f	2r	1a
.	.	2d	.
.	8e	.	.
.	8d	.	.
.	2c#	2e	2r
.	2d	2f	2a
=131	=131	=131	=131
0r	2G	2g	2b-
.	2A	2e	2cc
.	2.B-	2d	2dd
.	.	[2g	2b-
.	4c	.	.
=132	=132	=132	=132
2r	1d	4g]	2a
.	.	4f	.
2d	.	2f	2.dd
2e	1r	2g	.
.	.	.	4cc
2f	.	[2a	2cc
=133	=133	=133	=133
2g	0r	4a]	2b-
.	.	4g	.
2e	.	1g	4a
.	.	.	4g
[1d	.	.	1a
.	.	2f	.
=134	=134	=134	=134
1d]	1G	4b-	1g
.	.	4a	.
.	.	4g	.
.	.	4f	.
2r	2A	4e	1r
.	.	4f	.
2d	2B-	[2g	.
=135	=135	=135	=135
2e	2c	2g]	0r
2f	2A	2c	.
2g	1G	2r	.
2e	.	2g	.
=136	=136	=136	=136
1d	0r	2a	2r
.	.	2b-	2dd
2c	.	2cc	2ee
2d	.	2a	2ff
=137	=137	=137	=137
2.e	0r	2g	2gg
.	.	2.cc	2ee
4f	.	.	.
1g	.	.	2dd
.	.	4b-	.
.	.	4b-	[2gg
.	.	8a	.
.	.	8g	.
=138	=138	=138	=138
1d	2r	1a	2gg]
.	2d	.	2ff
1r	2e	2g	2ee
.	2f	2a	[2dd
=139	=139	=139	=139
2r	2g	2b-	2dd]
2A	2e	2a	2cc#
2B-	2d	2r	2dd
2c	2g	2e	4cc
.	.	.	4b-
=140	=140	=140	=140
2d	2f	2f	2a
2B-	4e	2g	2dd
.	4d	.	.
1A	1e	[1a	2dd
.	.	.	2cc
=141	=141	=141	=141
1d	2d	2a]	2.ff
.	2f	2b	.
.	.	.	4dd
2c	2g	1cc	2ee
4B-	2a	.	[2ff
4A	.	.	.
=142	=142	=142	=142
1B-	1d	2.f	4ff]
.	.	.	4ee
.	.	.	1dd
.	.	4g	.
1A	1e	1a	.
.	.	.	2cc#
=143	=143	=143	=143
0G	0g	0b-	[0dd
=144	=144	=144	=144
0d	0f#	0a	0dd]
*-	*-	*-	*-
!!!CDT: 1525/^1526/-1594/2/2
!!!OCY: Italia
!!!AGN: Mass (Parody)
!!!AST: renaissance, vocal
!!!ASW: Motet 1532 (Lhéritier)
!!!PWK: Masses, Book 5
!!!RNB: Cadence finals: G,A
!!!YOR: Le Opere Complete, v. 15, p. 89
!!!YOO: Rome, Italy: Fratelli Scalera
!!!END: 1992//
!!!EED: John Miller
!!!YEC: Copyright 2000, John Miller
!!!YEN: United States of America
!!!YEM: Rights to all derivative electronic formats reserved.
!!!YEM: Refer to licensing agreement for further details.
!!!YEM: This file must be accompanied by the licensing agreement.
!!!YEM: A copy of the licensing agreement may be found at http://www.music-cog.ohio-state.edu/HumdrumDatabases/Palestrina/license.txt
!!!EMD: converted to Humdrum by Bret Aarden
